Infinity-Icons/Infinity-Dark-Icons/apps/32/pattern-kubic.svg

<?xml version="1.0" encoding="UTF-8" standalone="no"?>
<svg
   height="32"
   width="32"
   version="1.1"
   id="svg5792"
   sodipodi:docname="pattern-kubic.svg"
   inkscape:version="1.2.1 (9c6d41e410, 2022-07-14)"
   xmlns:inkscape="http://www.inkscape.org/namespaces/inkscape"
   xmlns:sodipodi="http://sodipodi.sourceforge.net/DTD/sodipodi-0.dtd"
   xmlns:xlink="http://www.w3.org/1999/xlink"
   xmlns="http://www.w3.org/2000/svg"
   xmlns:svg="http://www.w3.org/2000/svg">
  <defs
     id="defs5796">
    <linearGradient
       id="a-6"
       y1="543.79999"
       y2="503.79999"
       x2="0"
       gradientUnits="userSpaceOnUse"
       gradientTransform="matrix(0.6999648,0,0,0.69999974,-301.98463,-350.65992)">
      <stop
         stop-color="#c6cdd1"
         id="stop2" />
      <stop
         offset="1"
         stop-color="#e0e5e7"
         id="stop4" />
    </linearGradient>
    <linearGradient
       id="linearGradient3822">
      <stop
         offset="0"
         stop-color="#bdc3c7"
         id="stop2257-1" />
      <stop
         offset="1"
         stop-color="#eff0f1"
         id="stop2259-8" />
    </linearGradient>
    <linearGradient
       id="f-7-0"
       gradientUnits="userSpaceOnUse"
       x1="17.538"
       x2="17.538"
       xlink:href="#linearGradient3822"
       y1="26"
       y2="7.5380001" />
    <linearGradient
       id="g-9-3"
       gradientUnits="userSpaceOnUse"
       x1="16"
       x2="19.077"
       xlink:href="#linearGradient3828"
       y1="7.9229999"
       y2="11" />
    <linearGradient
       id="linearGradient3828">
      <stop
         offset="0"
         stop-color="#292c2f"
         id="stop2276-2" />
      <stop
         offset="1"
         stop-opacity="0"
         id="stop2278-0" />
    </linearGradient>
    <linearGradient
       id="h-2-0"
       gradientUnits="userSpaceOnUse"
       x1="8.3079996"
       x2="8.3079996"
       xlink:href="#linearGradient3833"
       y1="18.308001"
       y2="7.1539998" />
    <linearGradient
       id="linearGradient3833">
      <stop
         offset="0"
         stop-color="#3b85b5"
         id="stop2269-3" />
      <stop
         offset="1"
         stop-color="#54a3d8"
         id="stop2271-7" />
    </linearGradient>
    <linearGradient
       id="i-9-0"
       gradientUnits="userSpaceOnUse"
       x1="6.7690001"
       x2="17.538"
       xlink:href="#linearGradient3828"
       y1="7.1539998"
       y2="17.923" />
    <linearGradient
       id="linearGradient3836"
       gradientTransform="matrix(0.38443,0,0,0.38462,3.698,3.692)"
       gradientUnits="userSpaceOnUse"
       x1="12"
       x2="12"
       xlink:href="#linearGradient3833"
       y1="38"
       y2="9" />
    <linearGradient
       id="k-2-6"
       gradientUnits="userSpaceOnUse"
       x1="16"
       x2="16"
       xlink:href="#linearGradient3833"
       y1="26"
       y2="10.615" />
    <linearGradient
       id="l-2-1"
       gradientUnits="userSpaceOnUse"
       x1="17.923"
       x2="17.923"
       y1="11.385"
       y2="6">
      <stop
         offset="0"
         stop-color="#292c2f"
         id="stop2263-8-5" />
      <stop
         offset="1"
         stop-color="#4d4d4d"
         id="stop2265-9-5" />
    </linearGradient>
    <linearGradient
       id="linearGradient6772"
       gradientUnits="userSpaceOnUse"
       x1="8"
       x2="30"
       y1="8"
       y2="30"
       gradientTransform="translate(-45.984541,-31.771186)">
      <stop
         offset="0"
         stop-color="#292c2f"
         id="stop5755-8" />
      <stop
         offset="1"
         stop-opacity="0"
         id="stop5757-4" />
    </linearGradient>
    <linearGradient
       inkscape:collect="always"
       xlink:href="#b"
       id="linearGradient6789"
       gradientUnits="userSpaceOnUse"
       gradientTransform="matrix(0.88,0,0,0.88,1.8200001,1.8700001)"
       x1="8"
       y1="8"
       x2="30"
       y2="30" />
  </defs>
  <sodipodi:namedview
     id="namedview5794"
     pagecolor="#ffffff"
     bordercolor="#666666"
     borderopacity="1.0"
     inkscape:showpageshadow="2"
     inkscape:pageopacity="0.0"
     inkscape:pagecheckerboard="0"
     inkscape:deskcolor="#d1d1d1"
     showgrid="false"
     inkscape:zoom="7.375"
     inkscape:cx="16"
     inkscape:cy="16.067797"
     inkscape:window-width="1920"
     inkscape:window-height="1000"
     inkscape:window-x="0"
     inkscape:window-y="0"
     inkscape:window-maximized="1"
     inkscape:current-layer="svg5792" />
  <linearGradient
     id="a"
     gradientUnits="userSpaceOnUse"
     x1="2"
     x2="2"
     y1="30"
     y2="2">
    <stop
       offset="0"
       stop-color="#cfd2d5"
       id="stop5750" />
    <stop
       offset="1"
       stop-color="#eff0f1"
       id="stop5752" />
  </linearGradient>
  <linearGradient
     id="b"
     gradientUnits="userSpaceOnUse"
     x1="8"
     x2="30"
     y1="8"
     y2="30"
     gradientTransform="translate(-45.984541,-31.771186)">
    <stop
       offset="0"
       stop-color="#292c2f"
       id="stop5755" />
    <stop
       offset="1"
       stop-opacity="0"
       id="stop5757" />
  </linearGradient>
  <rect
     width="27.998592"
     x="-29.999296"
     y="2.0000057"
     stroke-opacity="0.55"
     fill="url(#a)"
     rx="13.999296"
     height="27.999989"
     stroke-width="1.95995"
     transform="scale(-1,1)"
     id="rect20"
     style="fill:url(#a-6)" />
  <path
     fill="#99a1a7"
     d="m 2.0076769,15.65001 c -0.0028,0.116902 -0.0084,0.2324 -0.0084,0.35 0,7.755998 6.243686,13.999996 13.9992971,13.999996 7.755611,0 13.999298,-6.243998 13.999298,-13.999996 0,-0.1176 -0.0053,-0.233098 -0.0084,-0.35 -0.184791,7.5929 -6.355681,13.649996 -13.990898,13.649996 -7.6380171,0 -13.8061071,-6.057096 -13.9908981,-13.649996"
     id="path24"
     style="stroke-width:1.95995;stroke-opacity:0.55" />
  <g
     fill-rule="evenodd"
     id="g5788-3"
     transform="matrix(0.87999999,0,0,0.87999999,1.8200001,1.8700001)">
    <path
       d="m 7.8,22.2 6.4,-3.6 v 2 L 9.8,23"
       fill="#173f4f"
       id="path5764-1" />
    <path
       d="M 7.8,21 12.917,18.262 14.2,18.6 7.8,22.2"
       fill="#35b9ab"
       id="path5766-4" />
    <path
       d="M 6.6,22.6 7.8,22.2 V 11 H 6.6"
       fill="#173f4f"
       id="path5768-9" />
    <path
       d="m 16.2,24.2 -8.4,-2 -1.2,0.4 9.6,2.4"
       fill="#35b9ab"
       id="path5770-2" />
    <path
       d="M 5,9 V 23.8 L 17.8,27 17.835,12.03 Z m 1.6,2 9.6,2.4 V 25 L 6.6,22.6 Z"
       fill="#73ba25"
       id="path5772-0" />
    <path
       d="M 27,7.4 V 22.6 L 17.8,27 17.825,12.03 Z m -1.6,2.8 -6.4,3.2 v 11.2 l 6.4,-3.2 z M 7.537,8.87 14.2,5.8 V 7.4 L 9.949,9.432"
       fill="#173f4f"
       id="path5774-6" />
    <path
       d="M 14.2,5 5,9 17.83,12.025 27,7.4 Z m 0,0.8 9.6,2 L 17.4,11 7.544,8.87 Z"
       fill="#35b9ab"
       id="path5776-8" />
    <path
       d="M 14.2,7.4 15.455,7.515 15.4,18.2 14.2,18.6"
       fill="#173f4f"
       id="path5778-9" />
    <path
       d="m 23.8,7.8 -9.6,-2 V 7.4 L 21.4,9 m -8.486,9.274 V 7.974 L 14.2,7.4 v 11.2 m 0,0 v 2 l 7.643,1.56 2.412,-1.177"
       fill="#73ba25"
       id="path5780-2" />
    <path
       d="m 23.8,20.2 -8.4,-2 -1.2,0.4 9.6,2.4"
       fill="#35b9ab"
       id="path5782-6" />
    <path
       d="M 25.4,10.2 23.8,11 v 10 l 1.6,0.4"
       fill="#73ba25"
       id="path5784-6" />
    <path
       d="M 25.4,21.4 19,24.6 V 23.4 L 23.8,21 Z"
       fill="#35b9ab"
       id="path5786-4" />
  </g>
  <path
     d="m 6.22,22.814 5.456,5.456 H 28.22 V 11.022 L 25.58,8.382 14.316,6.27 6.22,9.7899999 Z"
     opacity="0.2"
     id="path5790-9"
     style="fill:url(#linearGradient6789);stroke-width:0.88" />
</svg>

<svg height="32" width="32" xmlns="http://www.w3.org/2000/svg"><linearGradient id="a" gradientUnits="userSpaceOnUse" x1="2" x2="2" y1="30" y2="2"><stop offset="0" stop-color="#cfd2d5"/><stop offset="1" stop-color="#eff0f1"/></linearGradient><linearGradient id="b" gradientUnits="userSpaceOnUse" x1="8" x2="30" y1="8" y2="30"><stop offset="0" stop-color="#292c2f"/><stop offset="1" stop-opacity="0"/></linearGradient><rect fill="url(#a)" height="28" rx="4" width="28" x="2" y="2"/><path d="M2 25v1c0 2.216 1.784 4 4 4h20c2.216 0 4-1.784 4-4v-1c0 2.216-1.784 4-4 4H6c-2.216 0-4-1.784-4-4z" fill="#292c2f" opacity=".2"/><g fill-rule="evenodd"><path d="M7.8 22.2l6.4-3.6v2L9.8 23" fill="#173f4f"/><path d="M7.8 21l5.117-2.738 1.283.338-6.4 3.6" fill="#35b9ab"/><path d="M6.6 22.6l1.2-.4V11H6.6" fill="#173f4f"/><path d="M16.2 24.2l-8.4-2-1.2.4 9.6 2.4" fill="#35b9ab"/><path d="M5 9v14.8L17.8 27l.035-14.97zm1.6 2l9.6 2.4V25l-9.6-2.4z" fill="#73ba25"/><path d="M27 7.4v15.2L17.8 27l.025-14.97zm-1.6 2.8L19 13.4v11.2l6.4-3.2zM7.537 8.87L14.2 5.8v1.6L9.949 9.432" fill="#173f4f"/><path d="M14.2 5L5 9l12.83 3.025L27 7.4zm0 .8l9.6 2-6.4 3.2-9.856-2.13z" fill="#35b9ab"/><path d="M14.2 7.4l1.255.115L15.4 18.2l-1.2.4" fill="#173f4f"/><path d="M23.8 7.8l-9.6-2v1.6L21.4 9m-8.486 9.274v-10.3L14.2 7.4v11.2m0 0v2l7.643 1.56 2.412-1.177" fill="#73ba25"/><path d="M23.8 20.2l-8.4-2-1.2.4 9.6 2.4" fill="#35b9ab"/><path d="M25.4 10.2l-1.6.8v10l1.6.4" fill="#73ba25"/><path d="M25.4 21.4L19 24.6v-1.2l4.8-2.4z" fill="#35b9ab"/></g><path d="M5 23.8l6.2 6.2H30V10.4l-3-3L14.2 5 5 9z" fill="url(#b)" opacity=".2"/></svg>
